svg/pencil_minus.svg

<svg xmlns="http://www.w3.org/2000/svg" viewBox="0 0 24 24"><path d="M20.7 7c.4-.4.4-1 0-1.4l-2.3-2.3c-.4-.4-1-.4-1.4 0l-1.8 1.8L19 8.9M3 17.2V21h3.8l11-11.1-3.7-3.8zM10 5v2H2V5z"/></svg>

<?xml version="1.0" encoding="UTF-8"?><!DOCTYPE svg PUBLIC "-//W3C//DTD SVG 1.1//EN" "http://www.w3.org/Graphics/SVG/1.1/DTD/svg11.dtd"><svg xmlns="http://www.w3.org/2000/svg" xmlns:xlink="http://www.w3.org/1999/xlink" version="1.1" id="mdi-pencil-minus" width="24" height="24" viewBox="0 0 24 24"><path d="M20.7,7C21.1,6.6 21.1,6 20.7,5.6L18.4,3.3C18,2.9 17.4,2.9 17,3.3L15.2,5.1L19,8.9M3,17.2V21H6.8L17.8,9.9L14.1,6.1L3,17.2M10,5V7H2V5H10Z" /></svg>
